X:1
T: A Trip to the Cottage
P:Ryan's Version
R:Jig
Q:180
K:G
M:6/8
L:1/16
|:d2|d2B2B2 B2G2G2|A2c2c2 A2F2D2|D2G2G2 F2A2A2|G2B2B2 A2B2c2|
d2B2B2 B2G2G2|A2c2c2 A2F2D2|D2G2G2 F2A2A2|B2G2G2 G4:|
|:d2|g2f2e2 d4d2|e2c2A2 B2c2d2|e2c2A2 d2A2F2|G2A2G2 F2E2D2|
g2f2e2 d4d2|e2c2A2 B2c2d2|e2f2g2 f2e2d2|e2d2^c2 d4:|
